X: 10824
T: Drampire, The
R: strathspey
M: 4/4
K: Amajor
"e7"e>d|:"Aa"c2 B<A "Dd"B>AF<A|"Ee"E>FE>D "Aa"C>A,C<E|"Aa"A>ce>a "F#fm"f<a e<A|"B bm"c2B2"Ee7"B2 e>d|
"C#a"c2 B<A "Dd"B>AF<A|"Ee"E>FE>D "A"C>A,"G#"C<E|"F#f#m"A>ce<a "Ee"g>fe<G|"Ee7"B2A2"a"A2:|
"e7"c>B|:"F#f#m"A2a>A"C#f#m"g>A f<A|"Aa"e>Ac<f "C#a"e>cA<F|"Ee"E2G<B "e"e<f"b7"^d>f|"e"e<f"b7"^d>f "G#e"(3efe (3=dcB|
"F#f#m"A2a>A"C#f#m"g>A f<A|"Aa"e>Ac<f "C#a"e>cA<F|"Ee"E2G<B "e"e>g"b7"f<G|"Ee7"B2A2"a"A2:|

